images/control/arrow-down.svg

<svg width="16" height="17" viewBox="0 0 16 17" fill="none" xmlns="http://www.w3.org/2000/svg"><path fill-rule="evenodd" clip-rule="evenodd" d="M3.80812 7.0532c-.26035-.26035-.68246-.26035-.94281 0-.26035.26035-.26035.68246 0 .94281l4.66034 4.66039a.92223.92223 0 0 0 .00624.0063c.1307.1307.30215.1958.47345.1952.16996-.0005.33977-.0655.46944-.1952a.91567.91567 0 0 0 .00621-.0063l4.66041-4.66039c.2603-.26035.2603-.68246 0-.94281-.2604-.26035-.6825-.26035-.9428 0l-4.19526 4.1952-4.19522-4.1952Z" fill="#2D3440"/></svg>

<svg width="16" height="17" viewBox="0 0 16 17" fill="none" xmlns="http://www.w3.org/2000/svg">
<g id="Arrow-down">
<path id="Union" fill-rule="evenodd" clip-rule="evenodd" d="M3.80812 7.0532C3.54777 6.79285 3.12566 6.79285 2.86531 7.0532C2.60496 7.31355 2.60496 7.73566 2.86531 7.99601L7.52565 12.6564C7.52771 12.6585 7.52979 12.6606 7.53189 12.6627C7.66259 12.7934 7.83404 12.8585 8.00534 12.8579C8.1753 12.8574 8.34511 12.7924 8.47478 12.6627C8.47687 12.6606 8.47894 12.6585 8.48099 12.6564L13.1414 7.99601C13.4017 7.73566 13.4017 7.31355 13.1414 7.0532C12.881 6.79285 12.4589 6.79285 12.1986 7.0532L8.00334 11.2484L3.80812 7.0532Z" fill="#2D3440"/>
</g>
</svg>
